svgs/light/bag-shopping.svg

<svg xmlns="http://www.w3.org/2000/svg" viewBox="0 0 448 512"><!--! Font Awesome Pro 6.5.1 by @fontawesome - https://fontawesome.com License - https://fontawesome.com/license (Commercial License) Copyright 2023 Fonticons, Inc. --><path d="M160 96v32H288V96c0-35.3-28.7-64-64-64s-64 28.7-64 64zm-32 64H48c-8.8 0-16 7.2-16 16V416c0 35.3 28.7 64 64 64H352c35.3 0 64-28.7 64-64V176c0-8.8-7.2-16-16-16H320v80c0 8.8-7.2 16-16 16s-16-7.2-16-16V160H160v80c0 8.8-7.2 16-16 16s-16-7.2-16-16V160zm0-32V96c0-53 43-96 96-96s96 43 96 96v32h80c26.5 0 48 21.5 48 48V416c0 53-43 96-96 96H96c-53 0-96-43-96-96V176c0-26.5 21.5-48 48-48h80z"/></svg>

<svg xmlns="http://www.w3.org/2000/svg" viewBox="0 0 448 512"><!--! Font Awesome Pro 6.1.1 by @fontawesome - https://fontawesome.com License - https://fontawesome.com/license (Commercial License) Copyright 2022 Fonticons, Inc. --><path d="M128 128V96C128 42.98 170.1 0 224 0C277 0 320 42.98 320 96V128H400C426.5 128 448 149.5 448 176V416C448 469 405 512 352 512H96C42.98 512 0 469 0 416V176C0 149.5 21.49 128 48 128H128zM160 128H288V96C288 60.65 259.3 32 224 32C188.7 32 160 60.65 160 96V128zM48 160C39.16 160 32 167.2 32 176V416C32 451.3 60.65 480 96 480H352C387.3 480 416 451.3 416 416V176C416 167.2 408.8 160 400 160H320V240C320 248.8 312.8 256 304 256C295.2 256 288 248.8 288 240V160H160V240C160 248.8 152.8 256 144 256C135.2 256 128 248.8 128 240V160H48z"/></svg>
